src/lib/packages/icons/src/assets/line/microscope.svg

<svg width="24" height="24" viewBox="0 0 24 24" fill="none" xmlns="http://www.w3.org/2000/svg">
<path d="M19 20.2499H13.25V19.6288C16.376 19.0408 18.75 16.2949 18.75 12.9999C18.75 11.1909 18.04 9.49885 16.782 8.24085L17.778 7.245C18.269 6.755 18.5179 6.22593 18.5179 5.67493C18.5179 5.31293 18.4 4.96286 18.188 4.62586C18.443 4.33086 18.4391 3.88877 18.1591 3.60877L17.1591 2.60877C16.8781 2.32777 16.435 2.32394 16.141 2.58094C15.281 2.04694 14.337 2.17588 13.524 2.98988L8.75806 7.75599C8.14306 8.37099 7.91299 9.06082 8.06799 9.73182L7.32703 10.4728C6.61603 11.1838 6.61603 12.067 7.32703 12.778L7.99097 13.443C8.34497 13.796 8.73304 13.975 9.14404 13.975C9.55504 13.975 9.94402 13.7958 10.296 13.4418L11.035 12.7028C11.17 12.7338 11.306 12.7489 11.443 12.7489C11.994 12.7489 12.522 12.4999 13.012 12.0089L15.7209 9.29993C16.6979 10.2789 17.249 11.5929 17.249 12.9989C17.249 15.8939 14.894 18.2489 11.999 18.2489C10.613 18.2489 9.30098 17.6939 8.33398 16.7489H10C10.414 16.7489 10.75 16.4129 10.75 15.9989C10.75 15.5849 10.414 15.2489 10 15.2489H5C4.586 15.2489 4.25 15.5849 4.25 15.9989C4.25 16.4129 4.586 16.7489 5 16.7489H6.41101C7.60801 18.5349 9.594 19.6508 11.75 19.7318V20.2489H6C5.586 20.2489 5.25 20.5849 5.25 20.9989C5.25 21.4129 5.586 21.7489 6 21.7489H19C19.414 21.7489 19.75 21.4129 19.75 20.9989C19.75 20.5849 19.414 20.2499 19 20.2499ZM9.14795 12.464C9.12695 12.45 9.09405 12.425 9.05005 12.381L8.38599 11.716C8.34199 11.672 8.31796 11.6398 8.30396 11.6288C8.31796 11.6078 8.34199 11.5759 8.38599 11.5319L8.89099 11.028L9.73999 11.8768L9.23499 12.382C9.19099 12.426 9.15895 12.451 9.14795 12.464ZM11.952 10.9498C11.565 11.3368 11.32 11.3368 10.933 10.9498L9.81799 9.83485C9.41899 9.43485 9.41899 9.2158 9.81799 8.8158L14.584 4.05091C14.784 3.85091 14.938 3.75086 15.094 3.75086C15.25 3.75086 15.404 3.85091 15.604 4.05091L16.718 5.1659C16.911 5.3599 17.019 5.54091 17.019 5.67591C17.019 5.81091 16.912 5.99094 16.718 6.18494L11.952 10.9498Z" fill="currentColor"/>
</svg>

<svg xmlns="http://www.w3.org/2000/svg" width="24" height="24" fill="none"><path fill="currentColor" d="M19 20.25h-5.75v-.621c3.126-.588 5.5-3.334 5.5-6.63 0-1.808-.71-3.5-1.968-4.758l.996-.996c.491-.49.74-1.02.74-1.57 0-.362-.118-.712-.33-1.05a.745.745 0 0 0-.029-1.016l-1-1a.743.743 0 0 0-1.018-.028c-.86-.534-1.804-.405-2.617.409L8.758 7.756c-.615.615-.845 1.305-.69 1.976l-.741.74c-.711.712-.711 1.595 0 2.306l.664.665c.354.353.742.532 1.153.532.411 0 .8-.18 1.152-.533l.739-.74c.135.032.271.047.408.047.551 0 1.079-.25 1.569-.74l2.709-2.71a5.208 5.208 0 0 1 1.528 3.7 5.256 5.256 0 0 1-5.25 5.25 5.253 5.253 0 0 1-3.665-1.5H10a.75.75 0 0 0 0-1.5H5a.75.75 0 0 0 0 1.5h1.411a6.74 6.74 0 0 0 5.339 2.983v.517H6a.75.75 0 0 0 0 1.5h13a.75.75 0 0 0 0-1.5Zm-9.852-7.786a.655.655 0 0 1-.098-.083l-.664-.665c-.044-.044-.068-.076-.082-.087a.638.638 0 0 1 .082-.097l.505-.504.849.849-.505.505c-.044.044-.076.069-.087.082Zm2.804-1.514c-.387.387-.632.387-1.019 0L9.818 9.835c-.399-.4-.399-.62 0-1.02l4.766-4.764c.2-.2.354-.3.51-.3.156 0 .31.1.51.3l1.114 1.115c.193.194.301.375.301.51s-.107.315-.301.509l-4.766 4.765Z"/></svg>
